docs/source/_static/MeanFi_logo_light.svg

<?xml version="1.0" encoding="UTF-8" standalone="no"?>
<svg
   width="172.44896"
   height="46.448067"
   viewBox="0 0 172.44896 46.448067"
   version="1.1"
   id="svg188"
   sodipodi:docname="MeanFi_logo_light.svg"
   inkscape:version="1.2.2 (b0a8486, 2022-12-01)"
   xmlns:inkscape="http://www.inkscape.org/namespaces/inkscape"
   xmlns:sodipodi="http://sodipodi.sourceforge.net/DTD/sodipodi-0.dtd"
   xmlns:xlink="http://www.w3.org/1999/xlink"
   xmlns="http://www.w3.org/2000/svg"
   xmlns:svg="http://www.w3.org/2000/svg">
  <sodipodi:namedview
     id="namedview190"
     pagecolor="#ffffff"
     bordercolor="#000000"
     borderopacity="0.25"
     inkscape:showpageshadow="2"
     inkscape:pageopacity="0.0"
     inkscape:pagecheckerboard="0"
     inkscape:deskcolor="#d1d1d1"
     showgrid="false"
     inkscape:zoom="7.1055043"
     inkscape:cx="82.893483"
     inkscape:cy="30.398968"
     inkscape:window-width="1920"
     inkscape:window-height="1080"
     inkscape:window-x="0"
     inkscape:window-y="0"
     inkscape:window-maximized="0"
     inkscape:current-layer="svg188" />
  <defs
     id="defs158">
    <g
       id="g156">
      <g
         id="glyph-0-0">
        <path
           d="m 8.125,-17.640625 c 0.125,-0.28125 0.125,-0.328125 0.125,-0.453125 0,-0.265625 -0.21875,-0.484375 -0.5,-0.484375 -0.21875,0 -0.390625,0.109375 -0.5625,0.5625 l -4.34375,11.375 C 2.796875,-6.5 2.71875,-6.34375 2.71875,-6.1875 c 0,0.0625 0,0.109375 0.125,0.40625 L 7.1875,5.59375 C 7.28125,5.875 7.40625,6.1875 7.75,6.1875 c 0.28125,0 0.5,-0.21875 0.5,-0.484375 0,-0.078125 0,-0.125 -0.125,-0.40625 L 3.734375,-6.1875 Z m 0,0"
           id="path132" />
      </g>
      <g
         id="glyph-0-1">
        <path
           d="m 6.765625,-5.78125 c 0.125,-0.296875 0.125,-0.34375 0.125,-0.40625 0,-0.078125 0,-0.125 -0.125,-0.421875 l -4.34375,-11.40625 c -0.140625,-0.421875 -0.296875,-0.5625 -0.5625,-0.5625 -0.265625,0 -0.5,0.21875 -0.5,0.484375 0,0.07813 0,0.125 0.125,0.40625 L 5.875,-6.1875 1.484375,5.25 c -0.125,0.28125 -0.125,0.328125 -0.125,0.453125 0,0.265625 0.234375,0.484375 0.5,0.484375 C 2.1875,6.1875 2.28125,5.953125 2.375,5.703125 Z m 0,0"
           id="path135" />
      </g>
      <g
         id="glyph-1-0">
        <path
           d="M 5.171875,-16.53125 C 5.03125,-16.90625 5,-16.921875 4.484375,-16.921875 H 1.3125 v 0.640625 c 1.703125,0 1.984375,0 1.984375,1.109375 v 12.75 c 0,0.609375 0,1.78125 -1.984375,1.78125 V 0 c 0.578125,-0.046875 1.609375,-0.046875 2.234375,-0.046875 0.609375,0 1.65625,0 2.234375,0.046875 v -0.640625 c -1.984375,0 -1.984375,-1.171875 -1.984375,-1.78125 V -16.1875 H 3.8125 L 9.640625,-0.390625 C 9.734375,-0.15625 9.78125,0 9.984375,0 c 0.203125,0 0.25,-0.15625 0.34375,-0.390625 l 5.875,-15.921875 h 0.03125 v 14.546875 c 0,1.125 -0.28125,1.125 -1.984375,1.125 V 0 c 0.671875,-0.046875 2,-0.046875 2.71875,-0.046875 0.71875,0 2.09375,0 2.75,0.046875 v -0.640625 c -1.703125,0 -1.96875,0 -1.96875,-1.125 v -13.40625 c 0,-1.109375 0.265625,-1.109375 1.96875,-1.109375 v -0.640625 h -3.140625 c -0.515625,0 -0.546875,0.01563 -0.6875,0.390625 L 10.53125,-2 Z m 0,0"
           id="path138" />
      </g>
      <g
         id="glyph-1-1">
        <path
           d="m 9.4375,-5.828125 c 0.109375,-0.09375 0.109375,-0.140625 0.109375,-0.390625 0,-2.53125 -1.34375,-4.734375 -4.171875,-4.734375 -2.625,0 -4.703125,2.5 -4.703125,5.546875 0,3.21875 2.34375,5.609375 4.984375,5.609375 2.765625,0 3.859375,-2.625 3.859375,-3.15625 C 9.515625,-3.125 9.375,-3.125 9.3125,-3.125 9.140625,-3.125 9.125,-3.078125 9.015625,-2.78125 8.46875,-1.09375 7.109375,-0.25 5.828125,-0.25 4.765625,-0.25 3.6875,-0.84375 3.015625,-1.9375 2.25,-3.203125 2.25,-4.65625 2.25,-5.828125 Z M 2.28125,-6.1875 c 0.171875,-3.578125 2.078125,-4.375 3.078125,-4.375 1.671875,0 2.8125,1.59375 2.84375,4.375 z m 0,0"
           id="path141" />
      </g>
      <g
         id="glyph-1-2">
        <path
           d="m 8.921875,-6.421875 c 0,-1.625 0,-2.5 -1.046875,-3.46875 -0.90625,-0.8125 -1.984375,-1.0625 -2.8125,-1.0625 -1.96875,0 -3.375,1.53125 -3.375,3.171875 0,0.921875 0.734375,0.96875 0.890625,0.96875 0.328125,0 0.890625,-0.203125 0.890625,-0.890625 0,-0.625 -0.46875,-0.890625 -0.890625,-0.890625 -0.09375,0 -0.21875,0.015625 -0.296875,0.046875 C 2.796875,-10.109375 4.140625,-10.5625 5,-10.5625 c 1.25,0 2.609375,1.09375 2.609375,3.171875 v 1.09375 C 6.140625,-6.25 4.390625,-6.046875 3,-5.296875 1.4375,-4.4375 0.984375,-3.203125 0.984375,-2.25 c 0,1.90625 2.234375,2.453125 3.546875,2.453125 1.359375,0 2.625,-0.765625 3.171875,-2.1875 0.046875,1.09375 0.75,2.078125 1.84375,2.078125 C 10.0625,0.09375 11.375,-0.25 11.375,-2.203125 V -3.59375 h -0.453125 v 1.40625 c 0,1.515625 -0.65625,1.71875 -0.984375,1.71875 -1.015625,0 -1.015625,-1.296875 -1.015625,-2.375 z m -1.3125,2.984375 c 0,2.15625 -1.53125,3.234375 -2.90625,3.234375 C 3.46875,-0.203125 2.5,-1.109375 2.5,-2.25 2.5,-3 2.828125,-4.3125 4.265625,-5.109375 5.453125,-5.78125 6.8125,-5.875 7.609375,-5.921875 Z m 0,0"
           id="path144" />
      </g>
      <g
         id="glyph-1-3">
        <path
           d="m 10.28125,-7.53125 c 0,-1.265625 -0.25,-3.328125 -3.171875,-3.328125 -1.953125,0 -2.96875,1.515625 -3.34375,2.515625 h -0.03125 v -2.515625 L 0.8125,-10.578125 V -9.9375 c 1.46875,0 1.6875,0.15625 1.6875,1.34375 v 6.890625 c 0,0.9375 -0.09375,1.0625 -1.6875,1.0625 V 0 C 1.40625,-0.046875 2.5,-0.046875 3.140625,-0.046875 c 0.65625,0 1.765625,0 2.359375,0.046875 v -0.640625 c -1.578125,0 -1.6875,-0.109375 -1.6875,-1.0625 V -6.46875 c 0,-2.28125 1.390625,-3.984375 3.125,-3.984375 1.828125,0 2.03125,1.625 2.03125,2.828125 v 5.921875 c 0,0.9375 -0.09375,1.0625 -1.6875,1.0625 V 0 c 0.59375,-0.046875 1.6875,-0.046875 2.328125,-0.046875 0.65625,0 1.765625,0 2.359375,0.046875 v -0.640625 c -1.578125,0 -1.6875,-0.109375 -1.6875,-1.0625 z m 0,0"
           id="path147" />
      </g>
      <g
         id="glyph-1-4">
        <path
           d="M 13.484375,-16.875 H 1.265625 v 0.640625 c 1.703125,0 1.984375,0 1.984375,1.125 v 13.34375 c 0,1.125 -0.28125,1.125 -1.984375,1.125 V 0 c 0.71875,-0.046875 2.109375,-0.046875 2.875,-0.046875 1.015625,0 2.203125,0 3.21875,0.046875 V -0.640625 H 6.8125 c -1.875,0 -1.9375,-0.25 -1.9375,-1.140625 V -8.125 h 2.234375 c 2.3125,0 2.53125,0.8125 2.53125,2.890625 h 0.453125 v -6.4375 H 9.640625 c 0,2.078125 -0.21875,2.90625 -2.53125,2.90625 H 4.875 v -6.5 c 0,-0.84375 0.0625,-0.96875 1.046875,-0.96875 H 9.125 c 3.734375,0 4.15625,1.546875 4.5,4.828125 h 0.453125 z m 0,0"
           id="path150" />
      </g>
      <g
         id="glyph-1-5">
        <path
           d="m 3.84375,-15.265625 c 0,-0.546875 -0.453125,-1.015625 -1.015625,-1.015625 -0.546875,0 -1.015625,0.453125 -1.015625,1.015625 0,0.546875 0.4375,1.015625 1.015625,1.015625 0.546875,0 1.015625,-0.4375 1.015625,-1.015625 z m -2.90625,4.6875 V -9.9375 c 1.390625,0 1.59375,0.15625 1.59375,1.34375 v 6.890625 c 0,0.9375 -0.109375,1.0625 -1.6875,1.0625 V 0 C 1.4375,-0.046875 2.5,-0.046875 3.125,-0.046875 c 0.59375,0 1.609375,0 2.171875,0.046875 v -0.640625 c -1.453125,0 -1.5,-0.15625 -1.5,-1.046875 v -9.171875 z m 0,0"
           id="path153" />
      </g>
    </g>
  </defs>
  <g
     id="g481"
     transform="matrix(1.8755056,0,0,1.8755056,-0.81541377,-1.5187185)">
    <g
       fill="#000000"
       fill-opacity="1"
       id="g162">
      <use
         xlink:href="#glyph-0-0"
         x="-2.2839799"
         y="19.38789"
         id="use160" />
    </g>
    <g
       fill="#000000"
       fill-opacity="1"
       id="g168">
      <use
         xlink:href="#glyph-1-0"
         x="7.3550801"
         y="19.38789"
         id="use164" />
      <use
         xlink:href="#glyph-1-1"
         x="28.424114"
         y="19.38789"
         id="use166" />
    </g>
    <g
       fill="#000000"
       fill-opacity="1"
       id="g172">
      <use
         xlink:href="#glyph-1-2"
         x="38.495121"
         y="19.38789"
         id="use170" />
    </g>
    <g
       fill="#000000"
       fill-opacity="1"
       id="g176">
      <use
         xlink:href="#glyph-1-3"
         x="49.862129"
         y="19.38789"
         id="use174" />
    </g>
    <g
       fill="#000000"
       fill-opacity="1"
       id="g180">
      <use
         xlink:href="#glyph-0-1"
         x="62.524979"
         y="19.38789"
         id="use178" />
    </g>
    <g
       fill="#000000"
       fill-opacity="1"
       id="g186">
      <use
         xlink:href="#glyph-1-4"
         x="72.16404"
         y="19.38789"
         id="use182" />
      <use
         xlink:href="#glyph-1-5"
         x="87.085876"
         y="19.38789"
         id="use184" />
    </g>
  </g>
</svg>

<?xml version="1.0" encoding="UTF-8"?>
<svg xmlns="http://www.w3.org/2000/svg" xmlns:xlink="http://www.w3.org/1999/xlink" width="93" height="26" viewBox="0 0 93 26">
<defs>
<g>
<g id="glyph-0-0">
<path d="M 8.125 -17.640625 C 8.25 -17.921875 8.25 -17.96875 8.25 -18.09375 C 8.25 -18.359375 8.03125 -18.578125 7.75 -18.578125 C 7.53125 -18.578125 7.359375 -18.46875 7.1875 -18.015625 L 2.84375 -6.640625 C 2.796875 -6.5 2.71875 -6.34375 2.71875 -6.1875 C 2.71875 -6.125 2.71875 -6.078125 2.84375 -5.78125 L 7.1875 5.59375 C 7.28125 5.875 7.40625 6.1875 7.75 6.1875 C 8.03125 6.1875 8.25 5.96875 8.25 5.703125 C 8.25 5.625 8.25 5.578125 8.125 5.296875 L 3.734375 -6.1875 Z M 8.125 -17.640625 "/>
</g>
<g id="glyph-0-1">
<path d="M 6.765625 -5.78125 C 6.890625 -6.078125 6.890625 -6.125 6.890625 -6.1875 C 6.890625 -6.265625 6.890625 -6.3125 6.765625 -6.609375 L 2.421875 -18.015625 C 2.28125 -18.4375 2.125 -18.578125 1.859375 -18.578125 C 1.59375 -18.578125 1.359375 -18.359375 1.359375 -18.09375 C 1.359375 -18.015625 1.359375 -17.96875 1.484375 -17.6875 L 5.875 -6.1875 L 1.484375 5.25 C 1.359375 5.53125 1.359375 5.578125 1.359375 5.703125 C 1.359375 5.96875 1.59375 6.1875 1.859375 6.1875 C 2.1875 6.1875 2.28125 5.953125 2.375 5.703125 Z M 6.765625 -5.78125 "/>
</g>
<g id="glyph-1-0">
<path d="M 5.171875 -16.53125 C 5.03125 -16.90625 5 -16.921875 4.484375 -16.921875 L 1.3125 -16.921875 L 1.3125 -16.28125 C 3.015625 -16.28125 3.296875 -16.28125 3.296875 -15.171875 L 3.296875 -2.421875 C 3.296875 -1.8125 3.296875 -0.640625 1.3125 -0.640625 L 1.3125 0 C 1.890625 -0.046875 2.921875 -0.046875 3.546875 -0.046875 C 4.15625 -0.046875 5.203125 -0.046875 5.78125 0 L 5.78125 -0.640625 C 3.796875 -0.640625 3.796875 -1.8125 3.796875 -2.421875 L 3.796875 -16.1875 L 3.8125 -16.1875 L 9.640625 -0.390625 C 9.734375 -0.15625 9.78125 0 9.984375 0 C 10.1875 0 10.234375 -0.15625 10.328125 -0.390625 L 16.203125 -16.3125 L 16.234375 -16.3125 L 16.234375 -1.765625 C 16.234375 -0.640625 15.953125 -0.640625 14.25 -0.640625 L 14.25 0 C 14.921875 -0.046875 16.25 -0.046875 16.96875 -0.046875 C 17.6875 -0.046875 19.0625 -0.046875 19.71875 0 L 19.71875 -0.640625 C 18.015625 -0.640625 17.75 -0.640625 17.75 -1.765625 L 17.75 -15.171875 C 17.75 -16.28125 18.015625 -16.28125 19.71875 -16.28125 L 19.71875 -16.921875 L 16.578125 -16.921875 C 16.0625 -16.921875 16.03125 -16.90625 15.890625 -16.53125 L 10.53125 -2 Z M 5.171875 -16.53125 "/>
</g>
<g id="glyph-1-1">
<path d="M 9.4375 -5.828125 C 9.546875 -5.921875 9.546875 -5.96875 9.546875 -6.21875 C 9.546875 -8.75 8.203125 -10.953125 5.375 -10.953125 C 2.75 -10.953125 0.671875 -8.453125 0.671875 -5.40625 C 0.671875 -2.1875 3.015625 0.203125 5.65625 0.203125 C 8.421875 0.203125 9.515625 -2.421875 9.515625 -2.953125 C 9.515625 -3.125 9.375 -3.125 9.3125 -3.125 C 9.140625 -3.125 9.125 -3.078125 9.015625 -2.78125 C 8.46875 -1.09375 7.109375 -0.25 5.828125 -0.25 C 4.765625 -0.25 3.6875 -0.84375 3.015625 -1.9375 C 2.25 -3.203125 2.25 -4.65625 2.25 -5.828125 Z M 2.28125 -6.1875 C 2.453125 -9.765625 4.359375 -10.5625 5.359375 -10.5625 C 7.03125 -10.5625 8.171875 -8.96875 8.203125 -6.1875 Z M 2.28125 -6.1875 "/>
</g>
<g id="glyph-1-2">
<path d="M 8.921875 -6.421875 C 8.921875 -8.046875 8.921875 -8.921875 7.875 -9.890625 C 6.96875 -10.703125 5.890625 -10.953125 5.0625 -10.953125 C 3.09375 -10.953125 1.6875 -9.421875 1.6875 -7.78125 C 1.6875 -6.859375 2.421875 -6.8125 2.578125 -6.8125 C 2.90625 -6.8125 3.46875 -7.015625 3.46875 -7.703125 C 3.46875 -8.328125 3 -8.59375 2.578125 -8.59375 C 2.484375 -8.59375 2.359375 -8.578125 2.28125 -8.546875 C 2.796875 -10.109375 4.140625 -10.5625 5 -10.5625 C 6.25 -10.5625 7.609375 -9.46875 7.609375 -7.390625 L 7.609375 -6.296875 C 6.140625 -6.25 4.390625 -6.046875 3 -5.296875 C 1.4375 -4.4375 0.984375 -3.203125 0.984375 -2.25 C 0.984375 -0.34375 3.21875 0.203125 4.53125 0.203125 C 5.890625 0.203125 7.15625 -0.5625 7.703125 -1.984375 C 7.75 -0.890625 8.453125 0.09375 9.546875 0.09375 C 10.0625 0.09375 11.375 -0.25 11.375 -2.203125 L 11.375 -3.59375 L 10.921875 -3.59375 L 10.921875 -2.1875 C 10.921875 -0.671875 10.265625 -0.46875 9.9375 -0.46875 C 8.921875 -0.46875 8.921875 -1.765625 8.921875 -2.84375 Z M 7.609375 -3.4375 C 7.609375 -1.28125 6.078125 -0.203125 4.703125 -0.203125 C 3.46875 -0.203125 2.5 -1.109375 2.5 -2.25 C 2.5 -3 2.828125 -4.3125 4.265625 -5.109375 C 5.453125 -5.78125 6.8125 -5.875 7.609375 -5.921875 Z M 7.609375 -3.4375 "/>
</g>
<g id="glyph-1-3">
<path d="M 10.28125 -7.53125 C 10.28125 -8.796875 10.03125 -10.859375 7.109375 -10.859375 C 5.15625 -10.859375 4.140625 -9.34375 3.765625 -8.34375 L 3.734375 -8.34375 L 3.734375 -10.859375 L 0.8125 -10.578125 L 0.8125 -9.9375 C 2.28125 -9.9375 2.5 -9.78125 2.5 -8.59375 L 2.5 -1.703125 C 2.5 -0.765625 2.40625 -0.640625 0.8125 -0.640625 L 0.8125 0 C 1.40625 -0.046875 2.5 -0.046875 3.140625 -0.046875 C 3.796875 -0.046875 4.90625 -0.046875 5.5 0 L 5.5 -0.640625 C 3.921875 -0.640625 3.8125 -0.75 3.8125 -1.703125 L 3.8125 -6.46875 C 3.8125 -8.75 5.203125 -10.453125 6.9375 -10.453125 C 8.765625 -10.453125 8.96875 -8.828125 8.96875 -7.625 L 8.96875 -1.703125 C 8.96875 -0.765625 8.875 -0.640625 7.28125 -0.640625 L 7.28125 0 C 7.875 -0.046875 8.96875 -0.046875 9.609375 -0.046875 C 10.265625 -0.046875 11.375 -0.046875 11.96875 0 L 11.96875 -0.640625 C 10.390625 -0.640625 10.28125 -0.75 10.28125 -1.703125 Z M 10.28125 -7.53125 "/>
</g>
<g id="glyph-1-4">
<path d="M 13.484375 -16.875 L 1.265625 -16.875 L 1.265625 -16.234375 C 2.96875 -16.234375 3.25 -16.234375 3.25 -15.109375 L 3.25 -1.765625 C 3.25 -0.640625 2.96875 -0.640625 1.265625 -0.640625 L 1.265625 0 C 1.984375 -0.046875 3.375 -0.046875 4.140625 -0.046875 C 5.15625 -0.046875 6.34375 -0.046875 7.359375 0 L 7.359375 -0.640625 L 6.8125 -0.640625 C 4.9375 -0.640625 4.875 -0.890625 4.875 -1.78125 L 4.875 -8.125 L 7.109375 -8.125 C 9.421875 -8.125 9.640625 -7.3125 9.640625 -5.234375 L 10.09375 -5.234375 L 10.09375 -11.671875 L 9.640625 -11.671875 C 9.640625 -9.59375 9.421875 -8.765625 7.109375 -8.765625 L 4.875 -8.765625 L 4.875 -15.265625 C 4.875 -16.109375 4.9375 -16.234375 5.921875 -16.234375 L 9.125 -16.234375 C 12.859375 -16.234375 13.28125 -14.6875 13.625 -11.40625 L 14.078125 -11.40625 Z M 13.484375 -16.875 "/>
</g>
<g id="glyph-1-5">
<path d="M 3.84375 -15.265625 C 3.84375 -15.8125 3.390625 -16.28125 2.828125 -16.28125 C 2.28125 -16.28125 1.8125 -15.828125 1.8125 -15.265625 C 1.8125 -14.71875 2.25 -14.25 2.828125 -14.25 C 3.375 -14.25 3.84375 -14.6875 3.84375 -15.265625 Z M 0.9375 -10.578125 L 0.9375 -9.9375 C 2.328125 -9.9375 2.53125 -9.78125 2.53125 -8.59375 L 2.53125 -1.703125 C 2.53125 -0.765625 2.421875 -0.640625 0.84375 -0.640625 L 0.84375 0 C 1.4375 -0.046875 2.5 -0.046875 3.125 -0.046875 C 3.71875 -0.046875 4.734375 -0.046875 5.296875 0 L 5.296875 -0.640625 C 3.84375 -0.640625 3.796875 -0.796875 3.796875 -1.6875 L 3.796875 -10.859375 Z M 0.9375 -10.578125 "/>
</g>
</g>
</defs>
<g fill="rgb(0%, 0%, 0%)" fill-opacity="1">
<use xlink:href="#glyph-0-0" x="-2.28398" y="19.38789"/>
</g>
<g fill="rgb(0%, 0%, 0%)" fill-opacity="1">
<use xlink:href="#glyph-1-0" x="7.35508" y="19.38789"/>
<use xlink:href="#glyph-1-1" x="28.424115" y="19.38789"/>
</g>
<g fill="rgb(0%, 0%, 0%)" fill-opacity="1">
<use xlink:href="#glyph-1-2" x="38.495121" y="19.38789"/>
</g>
<g fill="rgb(0%, 0%, 0%)" fill-opacity="1">
<use xlink:href="#glyph-1-3" x="49.86213" y="19.38789"/>
</g>
<g fill="rgb(0%, 0%, 0%)" fill-opacity="1">
<use xlink:href="#glyph-0-1" x="62.52498" y="19.38789"/>
</g>
<g fill="rgb(0%, 0%, 0%)" fill-opacity="1">
<use xlink:href="#glyph-1-4" x="72.16404" y="19.38789"/>
<use xlink:href="#glyph-1-5" x="87.085874" y="19.38789"/>
</g>
</svg>
